src/22/panel/goldendict-scan-tray.svg

<svg xmlns="http://www.w3.org/2000/svg" width="22" height="22"><defs><style id="current-color-scheme" type="text/css">.ColorScheme-Text{color:#bebebe}</style></defs><path class="ColorScheme-Text" d="M3.8 4c-.442 0-.8.311-.8.7v13.6c0 .389.358.7.8.7H16v-2h-4v-1h4v-1h-1v-1h1v-4h3V4.7c0-.389-.358-.7-.8-.7H12v4h2v1h-2v1h2v1h-2v-1H9v1H5v-1h3V7H5V6h3V4H3.8zM13 6h4v1h-4V6zM5 8h2v1H5V8zm10 0h2v1h-2V8zM5 12h3v1H5v-1zm7 0h3v1h-3v-1zm-7 2h3v1H5v-1zm4 0h1v1H9v-1zm3 0h1v1h-1v-1zm-7 2h1v1H5v-1zm2 0h3v1H7v-1z" fill="currentColor"/><path class="ColorScheme-Text" d="M9 3.5V9h2V3.5s-.081-.5-1-.5-1 .5-1 .5z" fill="currentColor" opacity=".3"/><path d="M17 11v6h2v-6h-2zm0 7v2h2v-2h-2z" fill="currentColor" color="#5294e2"/></svg>

<svg xmlns="http://www.w3.org/2000/svg" width="22" height="22" version="1.1">
 <defs>
  <style id="current-color-scheme" type="text/css">
   .ColorScheme-Text { color:#dfdfdf; } .ColorScheme-Highlight { color:#4285f4; }
  </style>
 </defs>
 <path style="fill:currentColor" class="ColorScheme-Text" d="M 3.8007812 4 C 3.3575812 4 3 4.3114187 3 4.6992188 L 3 18.300781 C 3 18.68858 3.3575813 19 3.8007812 19 L 16 19 L 16 17 L 12 17 L 12 16 L 13 16 L 15 16 L 16 16 L 16 15 L 15 15 L 15 14 L 16 14 L 16 13 L 16 12 L 16 11 L 16 10 L 17 10 L 19 10 L 19 4.6992188 C 19 4.3114188 18.642419 4 18.199219 4 L 18 4 L 12 4 L 12 8 L 13 8 L 14 8 L 14 9 L 12 9 L 12 10 L 14 10 L 14 11 L 12 11 L 12 10 L 10 10 L 9 10 L 9 11 L 8 11 L 5 11 L 5 10 L 7 10 L 8 10 L 8 7 L 7 7 L 5 7 L 5 6 L 8 6 L 8 4 L 3.8007812 4 z M 13 6 L 17 6 L 17 7 L 15 7 L 14 7 L 13 7 L 13 6 z M 5 8 L 7 8 L 7 9 L 5 9 L 5 8 z M 15 8 L 17 8 L 17 9 L 16 9 L 15 9 L 15 8 z M 5 12 L 8 12 L 8 13 L 5 13 L 5 12 z M 12 12 L 14 12 L 15 12 L 15 13 L 13 13 L 12 13 L 12 12 z M 5 14 L 8 14 L 8 15 L 7 15 L 6 15 L 5 15 L 5 14 z M 9 14 L 10 14 L 10 15 L 9 15 L 9 14 z M 12 14 L 13 14 L 13 15 L 12 15 L 12 14 z M 5 16 L 6 16 L 6 17 L 5 17 L 5 16 z M 7 16 L 8 16 L 9 16 L 10 16 L 10 17 L 7 17 L 7 16 z"/>
 <path style="fill:currentColor;opacity:0.3" class="ColorScheme-Text" d="M 8.9998,3.5 V 9 H 10 10.9998 V 3.5 C 10.9998,3.5 10.91867,3 10,3 9.081326,3 8.9998,3.5 8.9998,3.5 Z"/>
 <path style="fill:currentColor" class="ColorScheme-Highlight" d="M 17 11 L 17 17 L 19 17 L 19 11 L 17 11 z M 17 18 L 17 20 L 19 20 L 19 18 L 17 18 z"/>
</svg>
